images/icon/loyalty.svg

<svg xmlns="http://www.w3.org/2000/svg" width="1024" height="1024" class="colorable-icon" overflow="visible" viewBox="0 0 1023.97 1024"><path fill="none" stroke="#fff" stroke-linecap="round" stroke-linejoin="round" stroke-width="45" d="M408.63 307.73q-6.25 7.15-67.22 68.95M173.29 545.16c-25.12 23.42-32.65 32.25-36.42 39.99-2.24 6.84-4.22 18.37-5.09 30.96m278.3 25.4c6.41 6.5 14.45 18.03 20.26 29.7 4.28 12.81 6.45 23.63 7.63 39.39-1.13 13.95-4.09 27.86-8.1 39.69-5.25 11.23-11.02 20.77-20.63 34q-16.99 20.78-58.06 62.9m479.9-686.82c-2.57 28.23-5.9 51.2-9.18 69.67-3.74 13.78-9.45 27.73-14.81 37.15-11.13 13.81-20.51 22.06-29.94 28.24-9.3 4.4-18.56 7.46-32.29 9.92q-32.09 1.68-122.28 3.44M812.72 512c-8.86 5.15-32 21.09-50.8 32.29-22.01 11.07-47.99 21.69-72.31 29.45-24.75 5.88-50.08 10.03-85.47 13.78m417.49.53c-39.23-4.65-63.3-8.76-89.53-15.1-23.6-7.65-48.48-17.83-73.52-30.54q-16.29-9.94-45.86-30.41m208.91 76.05q1.95 10.45 2.34 38.64m-.44 49.81c-1.87 28.18-5.37 56.47-10.7 86.7-6.12 25.03-13.53 48.5-22.52 71.25-10.91 22.83-23.13 44.48-36.86 65.27-15.64 20.46-32.22 39.17-51.48 58.27-20.66 18.2-45.48 37.67-72.69 56.32l-17.14 9.69m0 0c-15.28-8.57-46.62-30.1-71.52-49.89-22.74-20.67-42.82-41.69-60.06-62.55-15.54-21.79-29.29-44.54-40.88-67.22-10.52-24.72-18.58-48.45-25.13-73.13-5.92-30.53-9.89-59.63-12.58-92.36l-.95-32.26m.14-44.43q.61-6.68 2.98-14.64M408.63 307.73l1.9-1.74m0 0 1.86-2.44m0 0 1.92-3.44m0 0 1.56-4.47m0 0 1.06-4.55m0 0L417.56 0M0 848.22l131.79-.15m-.05 6.87.35 66.26m324.39-.67-324.39.67M419 849.68l-67.82-2.49m67.82 2.49 4.73 1.56m0 0 4.78 2.2m0 0 4.64 2.86m0 0 4.34 3.48m0 0 3.9 3.98m0 0 3.38 4.4m0 0 2.86 4.66m.295-.127a105.1 105.1 0 0 1 8.368 47.826M309.598 609.401a112.01 112.01 0 0 1 99.105 29.637m-.303.312 1.68 2.16m-17.83 163.56-41.07 42.12m170.17-743.68L417.56 0m213.03 105.26-109.24-1.75m109.24 1.75 4.66 1.39m0 0 4.71 1.9m0 0 4.63 2.5m0 0 4.58 3.1m0 0 40.51 38.77m0 0 4.4 3.24m0 0 4.62 2.25m0 0 4.7 1.1m0 0 127.68.86M621.73 520.5l.85-211.71m-281.17 67.89L173.29 545.16m426.81 376.4-73.43-.53m-.5-309.12.5 309.12M131.78 616.11l-.04 238.83m892.23-228.25-.44 49.81m-422.51-29.91.14-44.43"/></svg>

<svg xmlns="http://www.w3.org/2000/svg" width="1024" height="1024" viewBox="0 0 1023.969970703125 1024" class="colorable-icon" data-export-recolorable-svg="true" overflow="visible"><g fill="none" stroke="white" stroke-width="45" stroke-linecap="round" stroke-linejoin="round"><path d="M 408.63,307.73 Q 402.38,314.88 341.41,376.68" data-line="nan" stroke-width="45.0"></path><path d="M 173.29,545.16 C 148.17,568.58 140.64,577.41 136.87,585.15 C 134.63,591.99 132.65,603.52 131.78,616.11" data-line="nan" stroke-width="45.0"></path><path d="M 410.08,641.51 C 416.49,648.01 424.53,659.54 430.34,671.21 C 434.62,684.02 436.79,694.84 437.97,710.6 C 436.84,724.55 433.88,738.46 429.87,750.29 C 424.62,761.52 418.85,771.06 409.24,784.29 Q 392.25,805.07 351.18,847.19" data-line="nan" stroke-width="45.0"></path><path d="M 831.08,160.37 C 828.51,188.6 825.18,211.57 821.9,230.04 C 818.16,243.82 812.45,257.77 807.09,267.19 C 795.96,281.0 786.58,289.25 777.15,295.43 C 767.85,299.83 758.59,302.89 744.86,305.35 Q 712.77,307.03 622.58,308.79" data-line="nan" stroke-width="45.0"></path><path d="M 812.72,512.0 C 803.86,517.15 780.72,533.09 761.92,544.29 C 739.91,555.36 713.93,565.98 689.61,573.74 C 664.86,579.62 639.53,583.77 604.14,587.52" data-line="nan" stroke-width="45.0"></path><path d="M 1021.63,588.05 C 982.4,583.4 958.33,579.29 932.1,572.95 C 908.5,565.3 883.62,555.12 858.58,542.41 Q 842.29,532.47 812.72,512.0" data-line="nan" stroke-width="45.0"></path><path d="M 1021.63,588.05 Q 1023.58,598.5 1023.97,626.69" data-line="nan" stroke-width="45.0"></path><path d="M 1023.53,676.5 C 1021.66,704.68 1018.16,732.97 1012.83,763.2 C 1006.71,788.23 999.3,811.7 990.31,834.45 C 979.4,857.28 967.18,878.93 953.45,899.72 C 937.81,920.18 921.23,938.89 901.97,957.99 C 881.31,976.19 856.49,995.66 829.28,1014.31 L 812.14,1024.0" data-line="nan" stroke-width="45.0"></path><path d="M 812.14,1024.0 C 796.86,1015.43 765.52,993.9 740.62,974.11 C 717.88,953.44 697.8,932.42 680.56,911.56 C 665.02,889.77 651.27,867.02 639.68,844.34 C 629.16,819.62 621.1,795.89 614.55,771.21 C 608.63,740.68 604.66,711.58 601.97,678.85 L 601.02,646.59" data-line="nan" stroke-width="45.0"></path><path d="M 601.16,602.16 Q 601.77,595.48 604.14,587.52" data-line="nan" stroke-width="45.0"></path><path d="M 408.63,307.73 L 410.53,305.99" data-line="1.0" stroke-width="45.0"></path><path d="M 410.53,305.99 L 412.39,303.55" data-line="2.0" stroke-width="45.0"></path><path d="M 412.39,303.55 L 414.31,300.11" data-line="3.0" stroke-width="45.0"></path><path d="M 414.31,300.11 L 415.87,295.64" data-line="4.0" stroke-width="45.0"></path><path d="M 415.87,295.64 L 416.93,291.09" data-line="5.0" stroke-width="45.0"></path><path d="M 416.93,291.09 L 417.56,0.0" data-line="6.0" stroke-width="45.0"></path><path d="M 0.0,848.22 L 131.79,848.07" data-line="7.0" stroke-width="45.0"></path><path d="M 131.74,854.94 L 132.09,921.2" data-line="8.0" stroke-width="45.0"></path><path d="M 456.48,920.53 L 132.09,921.2" data-line="9.0" stroke-width="45.0"></path><path d="M 419.0,849.68 L 351.18,847.19" data-line="10.0" stroke-width="45.0"></path><path d="M 419.0,849.68 L 423.73,851.24" data-line="11.0" stroke-width="45.0"></path><path d="M 423.73,851.24 L 428.51,853.44" data-line="12.0" stroke-width="45.0"></path><path d="M 428.51,853.44 L 433.15,856.3" data-line="13.0" stroke-width="45.0"></path><path d="M 433.15,856.3 L 437.49,859.78" data-line="14.0" stroke-width="45.0"></path><path d="M 437.49,859.78 L 441.39,863.76" data-line="15.0" stroke-width="45.0"></path><path d="M 441.39,863.76 L 444.77,868.16" data-line="16.0" stroke-width="45.0"></path><path d="M 444.77,868.16 L 447.63,872.82" data-line="17.0" stroke-width="45.0"></path><path d="M 447.92538782296697,872.6929207775556 A 105.11184482533562,105.11184482533562 0 0,1 456.2934664841494,920.5188237106805" data-line="18.0" stroke-width="45.0"></path><path d="M 309.5975804964639,609.4012516667558 A 112.01104368954324,112.01104368954324 0 0,1 408.7026331364535,639.0382408691022" data-line="20.0" stroke-width="45.0"></path><path d="M 408.4,639.35 L 410.08,641.51" data-line="21.0" stroke-width="45.0"></path><path d="M 392.25,805.07 L 351.18,847.19" data-line="22.0" stroke-width="45.0"></path><path d="M 521.35,103.51 L 417.56,0.0" data-line="23.0" stroke-width="45.0"></path><path d="M 630.59,105.26 L 521.35,103.51" data-line="24.0" stroke-width="45.0"></path><path d="M 630.59,105.26 L 635.25,106.65" data-line="25.0" stroke-width="45.0"></path><path d="M 635.25,106.65 L 639.96,108.55" data-line="26.0" stroke-width="45.0"></path><path d="M 639.96,108.55 L 644.59,111.05" data-line="27.0" stroke-width="45.0"></path><path d="M 644.59,111.05 L 649.17,114.15" data-line="28.0" stroke-width="45.0"></path><path d="M 649.17,114.15 L 689.68,152.92" data-line="29.0" stroke-width="45.0"></path><path d="M 689.68,152.92 L 694.08,156.16" data-line="30.0" stroke-width="45.0"></path><path d="M 694.08,156.16 L 698.7,158.41" data-line="31.0" stroke-width="45.0"></path><path d="M 698.7,158.41 L 703.4,159.51" data-line="32.0" stroke-width="45.0"></path><path d="M 703.4,159.51 L 831.08,160.37" data-line="33.0" stroke-width="45.0"></path><path d="M 621.73,520.5 L 622.58,308.79" data-line="35.0" stroke-width="45.0"></path><path d="M 341.41,376.68 L 173.29,545.16" data-line="36.0" stroke-width="45.0"></path><path d="M 600.1,921.56 L 526.67,921.03" data-line="36.0" stroke-width="45.0"></path><path d="M 526.17,611.91 L 526.67,921.03" data-line="37.0" stroke-width="45.0"></path><path d="M 131.78,616.11 L 131.74,854.94" data-line="38.0" stroke-width="45.0"></path><path d="M 1023.97,626.69 L 1023.53,676.5" data-line="44.0" stroke-width="45.0"></path><path d="M 601.02,646.59 L 601.16,602.16" data-line="47.0" stroke-width="45.0"></path></g></svg>
